Origami/32x32/apps/sanctum-2.svg

<svg width="32" height="32" version="1.1" viewBox="0 0 32 32" xmlns="http://www.w3.org/2000/svg">
 <path d="M 16,2.0253906 16,17 29.974609,17 A 14.5,14.5 0 0 0 30,16.5 14.5,14.5 0 0 0 16,2.0253906 Z M 16,17 1.0175781,17 A 14.5,14.5 0 0 0 15.5,31 14.5,14.5 0 0 0 16,30.982422 L 16,17 Z" style="opacity:.2"/>
 <path d="M 16 1.0253906 L 16 16 L 29.974609 16 A 14.5 14.5 0 0 0 30 15.5 A 14.5 14.5 0 0 0 16 1.0253906 z M 16 16 L 1.0175781 16 A 14.5 14.5 0 0 0 15.5 30 A 14.5 14.5 0 0 0 16 29.982422 L 16 16 z" style="fill:#cccccc"/>
 <path d="m16 1.0253906v1a14.5 14.5 0 0 1 13.974609 13.974609 14.5 14.5 0 0 0 0.025391 -0.5 14.5 14.5 0 0 0 -14 -14.474609zm-14.982422 14.974609a14.5 14.5 0 0 0 0.0859375 1h14.896484v-1h-14.982422z" style="fill:#ffffff;opacity:.2"/>
 <circle cx="15.5" cy="16.5" r="11.5" style="opacity:.2"/>
 <circle cx="15.5" cy="15.5" r="11.5" style="fill:#ffffff"/>
 <circle cx="15.5" cy="15.5" r="8.5" style="fill:#3ca2e4"/>
 <path d="m12.5 11.49985h6v5h-6v5h6" style="fill:none;opacity:.2;stroke-linecap:round;stroke-linejoin:round;stroke-width:3;stroke:#000000"/>
 <path d="m12.5 10.5h6v5h-6v5h6" style="fill:none;stroke-linecap:round;stroke-linejoin:round;stroke-width:3;stroke:#ffc34c"/>
 <path d="m12.5 9a1.50015 1.50015 0 0 0 -1.433594 2 1.50015 1.50015 0 0 1 1.433594 -1h6a1.50015 1.50015 0 0 1 1.5 1.5v-1a1.50015 1.50015 0 0 0 -1.5 -1.5h-6zm0 5a1.50015 1.50015 0 0 0 -1.5 1.5v1a1.50015 1.50015 0 0 1 1.5 -1.5h4.5v-1h-4.5zm1.5 5v1h4.5a1.50015 1.50015 0 0 1 1.433594 1 1.50015 1.50015 0 0 0 -1.433594 -2h-4.5z" style="fill-rule:evenodd;fill:#ffffff;opacity:.2"/>
</svg>

<svg xmlns="http://www.w3.org/2000/svg" width="32" height="32" version="1.1" viewBox="0 0 32 32">
 <path d="M 16,2.0253906 16,17 29.974609,17 A 14.5,14.5 0 0 0 30,16.5 14.5,14.5 0 0 0 16,2.0253906 Z M 16,17 1.0175781,17 A 14.5,14.5 0 0 0 15.5,31 14.5,14.5 0 0 0 16,30.982422 L 16,17 Z" style="opacity:0.2"/>
 <path style="fill:#cccccc" d="M 16 1.0253906 L 16 16 L 29.974609 16 A 14.5 14.5 0 0 0 30 15.5 A 14.5 14.5 0 0 0 16 1.0253906 z M 16 16 L 1.0175781 16 A 14.5 14.5 0 0 0 15.5 30 A 14.5 14.5 0 0 0 16 29.982422 L 16 16 z"/>
 <path style="opacity:0.2;fill:#ffffff" d="M 16 1.0253906 L 16 2.0253906 A 14.5 14.5 0 0 1 29.974609 16 A 14.5 14.5 0 0 0 30 15.5 A 14.5 14.5 0 0 0 16 1.0253906 z M 1.0175781 16 A 14.5 14.5 0 0 0 1.1035156 17 L 16 17 L 16 16 L 1.0175781 16 z"/>
 <circle cx="15.5" cy="16.5" r="11.5" style="opacity:0.2"/>
 <circle style="fill:#ffffff" cx="15.5" cy="15.5" r="11.5"/>
 <circle cx="15.5" cy="15.5" r="8.5" style="fill:#3ca2e4"/>
 <path d="m 12.5,11.49985 6,0 0,5 -6,0 0,5 6,0" style="opacity:0.2;fill:none;stroke:#000000;stroke-width:3;stroke-linecap:round;stroke-linejoin:round"/>
 <path style="fill:none;stroke:#ffc34c;stroke-width:3;stroke-linecap:round;stroke-linejoin:round" d="m 12.5,10.5 6,0 0,5 -6,0 0,5 6,0"/>
 <path style="opacity:0.2;fill:#ffffff;fill-rule:evenodd" d="M 12.5 9 A 1.50015 1.50015 0 0 0 11.066406 11 A 1.50015 1.50015 0 0 1 12.5 10 L 18.5 10 A 1.50015 1.50015 0 0 1 20 11.5 L 20 10.5 A 1.50015 1.50015 0 0 0 18.5 9 L 12.5 9 z M 12.5 14 A 1.50015 1.50015 0 0 0 11 15.5 L 11 16.5 A 1.50015 1.50015 0 0 1 12.5 15 L 17 15 L 17 14 L 12.5 14 z M 14 19 L 14 20 L 18.5 20 A 1.50015 1.50015 0 0 1 19.933594 21 A 1.50015 1.50015 0 0 0 18.5 19 L 14 19 z"/>
</svg>
